X:1
T:You Might Easy Know a Doffer
M:4/4
L:1/8
K:C
 EF| GG GGG-E FG| AA AA A2 AA| B2 BB B2 BA| G/2 G3/2 GE G2| EF| G/2 G3/2 BA AG AD|\
 A/2 A3/2 AA A2 GA| BB BA AG AG| c/2 c3/2 cc c2| EF| GG GG G2 FD| AA AA A2 GA|\
 BB BB BG AG| c/2 c3/2 cc c2||
